X:1
T: The Bog of Rannes
C:Alexander Walker
R:Jig
Q:180
K:E
M:6/8
L:1/16
|:B2|e2f2g2 B2G2B2|c2A2c2 B2G2B2|e2f2g2 B2G2B2|c2G2F2 F4B2|
e2f2g2 B2G2B2|c2A2c2 B2G2B2|e2c2e2 B2G2B2|G2E2E2 E4:|
|:F2|E2G2B2 B2G2E2|c2A2c2 B2G2E2|E2G2B2 B2A2G2|F2f2f2 f4G2|
E2G2B2 B2G2E2|c2A2c2 B2c2d2|e2c2e2 B2G2B2|G2E2E2 E4:|
